icons/places/32/folder-templates.svg

<?xml version="1.0" encoding="UTF-8" standalone="no"?>

<!-- Created with Inkscape (http://www.inkscape.org/) -->
<svg width="32" version="1.1" xmlns="http://www.w3.org/2000/svg" height="32" viewBox="0 0 32 32" xmlns:xlink="http://www.w3.org/1999/xlink" xmlns:inkscape="http://www.inkscape.org/namespaces/inkscape">
 <defs id="defs5455">
  <linearGradient inkscape:collect="always" id="linearGradient4172-5">
   <stop style="stop-color:#3daee9" id="stop4174-6"/>
   <stop offset="1" style="stop-color:#6cc1ef" id="stop4176-6"/>
  </linearGradient>
  <linearGradient inkscape:collect="always" id="linearGradient4342" xlink:href="#linearGradient4172-5" y1="29" y2="8" gradientUnits="userSpaceOnUse" x2="0"/>
 </defs>
 <metadata id="metadata5458"/>
 <g inkscape:label="Capa 1" inkscape:groupmode="layer" id="layer1" transform="matrix(1 0 0 1 -384.57143 -515.798)">
  <g inkscape:label="Capa 1" id="layer1-6" transform="matrix(1 0 0 1 -0.000006 0)">
   <path inkscape:connector-curvature="0" style="fill:#147eb8;fill-rule:evenodd" id="path4308" d="m 386.57144,518.798 0,7 0,1 28,0 0,-6 -14.00001,0 -2,-2 z"/>
   <path inkscape:connector-curvature="0" style="fill-opacity:0.235294;fill-rule:evenodd" id="path4306" d="m 397.57143,523.798 -1.99999,1 -9,0 0,1 6.99999,0 3,0 z"/>
   <path inkscape:connector-curvature="0" style="fill:url(#linearGradient4342)" id="rect4294" d="m 13,8 -2,2 -9,0 -1,0 0,19 11,0 1,0 18,0 0,-21 -18,0 z" transform="matrix(1 0 0 1 384.57143 515.798)"/>
   <path inkscape:connector-curvature="0" style="fill:#ffffff;fill-opacity:0.235294;fill-rule:evenodd" id="path4304" d="m 397.57143,523.798 -2,2 -10,0 0,1 11,0 z"/>
   <path inkscape:connector-curvature="0" style="fill:#ffffff;fill-opacity:0.235294;fill-rule:evenodd" id="path4310" d="m 398.57143,518.798 1,3 15.00001,0 0,-1 -14.00001,0 z"/>
   <rect width="30" x="385.57144" y="543.79797" height="1" style="fill-opacity:0.235294" id="rect4292"/>
  </g>
  <path inkscape:connector-curvature="0" style="fill:#1272a5" id="rect4184" d="m 20.292969,13 -10,10 H 11 11.707031 21 V 22 H 13 12.707031 L 21,13.707031 Z M 13,22 13.460938,21.595703 c -0.0066,-0.01232 -0.01311,-0.02469 -0.01953,-0.03711 z m 5.675781,-4.966797 -0.755859,0.662109 C 18.604142,18.265178 18.999851,19.109549 19,20 c -0.0014,0.3409 -0.0608,0.679075 -0.175781,1 h 1.044922 C 19.954776,20.673523 19.998745,20.337519 20,20 c -0.0018,-1.131735 -0.482985,-2.209729 -1.324219,-2.966797 z" transform="matrix(1 0 0 1 384.57143 515.798)"/>
 </g>
</svg>

<svg xmlns="http://www.w3.org/2000/svg" viewBox="0 0 32 32">
  <defs id="defs3051">
    <style type="text/css" id="current-color-scheme">
      .ColorScheme-Text {
        color:#31363b;
      }
      .ColorScheme-Background {
        color:#eff0f1;
      }
      .ColorScheme-Highlight {
        color:#3daee9;
      }
      .ColorScheme-ViewText {
        color:#31363b;
      }
      .ColorScheme-ViewBackground {
        color:#fcfcfc;
      }
      .ColorScheme-ViewHover {
        color:#93cee9;
      }
      .ColorScheme-ViewFocus{
        color:#3daee9;
      }
      .ColorScheme-ButtonText {
        color:#31363b;
      }
      .ColorScheme-ButtonBackground {
        color:#eff0f1;
      }
      .ColorScheme-ButtonHover {
        color:#93cee9;
      }
      .ColorScheme-ButtonFocus{
        color:#3daee9;
      }
      .ColorScheme-HighlightedText {
        color:#eff0f1;
      }
      </style>
  </defs>
 <path 
     style="fill:currentColor;fill-opacity:1;stroke:none" 
     d="M 2 3 L 2 10 L 1 10 L 1 29 L 12 29 L 13 29 L 31 29 L 31 8 L 30 8 L 30 5 L 16 5 L 14 3 L 2 3 z "
     class="ColorScheme-Highlight"
     />
 <path 
     style="fill-opacity:0.33;fill-rule:evenodd"
     d="m 2,3 0,7 9,0 L 13,8 30,8 30,5 16,5 14,3 2,3 Z"
     />
 <path 
     style="fill:#ffffff;fill-opacity:0.2;fill-rule:evenodd"
     d="M 14 3 L 15 6 L 30 6 L 30 5 L 16 5 L 14 3 z M 13 8 L 11 10 L 1 10 L 1 11 L 12 11 L 13 8 z "
     />
 <path 
     style="fill-opacity:0.2;fill-rule:evenodd"
     d="M 13 8 L 11 9 L 2 9 L 2 10 L 11 10 L 13 8 z M 1 28 L 1 29 L 31 29 L 31 28 L 1 28 z "
     class="ColorScheme-Text"
     />
 <path 
     style="fill:currentColor;fill-opacity:0.6;stroke:none" 
     d="M 20.292969 13 L 10.292969 23 L 11 23 L 11.707031 23 L 21 23 L 21 22 L 13 22 L 12.707031 22 L 21 13.707031 L 20.292969 13 z M 13 22 L 13.460938 21.595703 C 13.454337 21.583383 13.447826 21.571014 13.441406 21.558594 L 13 22 z M 18.675781 17.033203 L 17.919922 17.695312 C 18.604142 18.265178 18.999851 19.109549 19 20 C 18.9986 20.3409 18.9392 20.679075 18.824219 21 L 19.869141 21 C 19.954776 20.673523 19.998745 20.337519 20 20 C 19.9982 18.868265 19.517015 17.790271 18.675781 17.033203 z "
     class="ColorScheme-HighlightedText"
     />
</svg>
